!!!OTL: 199. Sher
!!!Genre:	Sher
!!!Mode:	Minor
!!!Listening/dance:	dance
!!!:	*B-:
!!!One_Mode:	no
**kern
*I"P1
*clefG2
*k[b-e-]
*g:
*M2/4
*>A
!LO:TX:a:i:t=G-minor
8d
=1!|:
16gLL
16b-
16dd
16ggJJ
(16ff#XLL
16gg)
16dd'
16ffn'JJ
=2
(16ee-LL
16dd)
16cc'
16ee-'JJ
8ddtL
(16ccL
16b-JJ)
=3
8b-
(8qdd/
4cc)
(16b-LL
16aJJ)
=4
8gL
8b-
8dd
8ggJ
=5
8aa
(8qccc/
4bb-)
(16aaLL
16ggJJ)
=6
16ff#XLL
16gg
16aa
16ggJJ
16ff#LL
16ee-
16dd
16ccJJ
=7
8ccL
(8qgg/
16ffnL)
16ee-JJ
16ddLL
16cc
16b-
16aJJ
*>A1
=8
16b-LL
16cc
16aJJ
(8qcc/
16b-JJ)
8.gL
16dJk
*>A2
=9:|!
(16b-LL
16cc)
16aJJ
(8qcc/
16b-JJ)
8.gL
*>B
16gJk
*>bM
*B-:
!LO:TX:a:i:t=Bb-major
=10!|:
4.b-
16ccLL
16ddJJ
=11
4.b-
16ccLL
16ddJJ
=12
8b-L
16ccL
16ddJJ
8b-L
16ccL
16ddJJ
=13
16b-LL
16f
16g
16aJJ
16b-LL
16cc
16dd
16ee-JJ
=14
4.ff
8een
=15
4.ff
8een
=16
(16ggLL
16ff)
(16ff
16eenJJ)
(16ggLL
16ff)
(16ff
16eeJJ)
=17
(16ggLL
16ff)
(16ff
16eenJJ)
4ff
=18
(16qqff/LL
16qqgg/
16qqaa/JJ
16bb-LL)
16dd
16ee-X
16ggJJ
16ffLL
16dd
16ee-
16ccJJ
=19
4.ddt
16ccLL
16b-JJ
=20
(8qdd/
16ccLL)
16bn
16cc
16ddJJ
16ee-LL
16f
16g
16aJJ
=21
16b-XLL
16dd
16cc
16ee-JJ
16ddLL
16ff
16ee-
16ggJJ
=22
16ffLL
16bb-
16aa
16ggJJ
16ffLL
16dd
16ee-
16ggJJ
=23
16ffLL
16dd
16ee-
16ccJJ
8ddtL
16ccL
16b-JJ
=24
(8qdd/
16ccLL)
16bn
16cc
16ddJJ
16ee-LL
16f
16g
16aJJ
*>bM1
=25
(16ccLL
16b-XJJ)
4b-
8f
*>bM2
=26:|!
(16ccLL
16b-JJ)
4b-
*>C
8dd
*>eM
*g:
!LO:TX:a:i:t=G-minor
=27||
(8qdd/
4bb-)
(8qdd/
4aa)
=28
[4gg
16ggLL]
16dd
16gg
16bb-JJ
=29
(8.aaL
16ggJk)
16aaLL
16gg
16ff#X
16ee-JJ
=30
16ee-LL
16ddJJ
4dd
8dd
=31
8.ggL
16ffnJk
8ee-L
8ddJ
=32
4.cc
16ddLL
16ee-JJ
=33
16ddLL
(8qff/
16ee-)
16dd
16ccJJ
16b-LL
(8qdd/
16cc)
16b-
16aJJ
=34
8gL
8b-
8dd
8ggJ
=35
8bb-L
8ddd
8aa
8dddJ
=36
[4gg
16ggLL]
16dd
16gg
16bb-JJ
=37
8.aaL
16ggJk
16aaLL
16gg
16ff#X
16ee-JJ
=38
16ee-LL
16ddJJ
4dd
8gg
=39
8.aa-XL
16ggJk
(16aa-LL
16gg
16ffn
16ee-JJ)
=40
16ddLL
16cc
16ff
16ee-JJ
16ddLL
16cc
16b-
16anJJ
=41
(16b-LL
16a)
16a
(8qcc/
16b-JJ)
(16b-LL
16a-X)
((8qb-/
16a-)
16gJJ)
=42
2g
==
*-
